X: 7
T: Da shi hua
%%abc-version 2.0
%%abcx-abcm2ps-target-version 5.9.1 (29 Sep 2008)
%%abc-creator hum2abc beta
%%abcx-conversion-date 2013/10/02 07:44:27
%%abc-edited-by Helmut Schaffrath
%%humdrum-veritas 2726519593
%%humdrum-veritas-data 3676061422
%%continueall 1
%%barnumbers 0
L: 1/8
M: 2/4
K: C
cc2d [I:setbarnb 1]| 
e2z2 | 
ee2d | 
c4 | 
AA2c | 
d B A G | 
E G A E | 
G2z2 | 
A2c2 | 
A c A G | 
E A F E | 
D E G A | 
E2z2 | 
d> ^c d d | 
A2z2 | 
d B d d | 
c2z2 | 
cc2d | 
e de2 | 
c> de2 | 
e> e e d | 
c2e d | 
dc2A | 
c2z2 | 
A2c2 | 
A c A G | 
E A F E | 
D E G A | 
E2z2 | 
A2c2 | 
A c A G | 
E A F E | 
D E G A | 
E2z2 |]  



